X:1
T:Minority
C:1953 - Gigi Gryce
Z:www.realbook.site
L:1/8
M:4/4
I:linebreak $
K:Fmin
V:1 treble nm=" " snm=" "
V:1
|:"Fm" G4- G3 F |"Dm7b5" z4 =D=EFG |"Gm7" =A4 A3 G |"C7b9" =A c2 A- A4 |$"Fm" G4- G3 F | %5
"Dm7b5" z4 FG=Ac |"Cm7" =d4 d3 c |"F7" =d f2 d- d4 |$"Bbm7" z c2 z c3 B |"Eb7" c e2 c- c4 | %10
"Abm7" z B2 z B3 A |"Db7" B d2 B- B4 |$"Gbm7" A4 A3 A |"Cb7" z4 (3F2 _G2 A2 |"Gm7" =A4 A3 A | %15
"C7" z4 c=A=EC |] %16

